!!!SOCIAL_FUNCTION:	comanche dance songs
!!!PDT:	1957
!!!OTL: No_40_Song_of_Comanche_Dance.krn
!!!LING_GROUP: Keresan
!!!LANG: Tone
!!!REG: Southwest
**kern
*staff1
=1-
=
*clefF4
*k[b-e-a-d-g-]
*M2/4
8A-\L
8A-\J
4A-\
=2
4A-\
8A-\L
8f\J
=3
*M3/4
4a-\
8f\L
8d-\J
4d-\
=4
8e-\L
8e-\J
4.e-\
8f\
=5
4a-\
8f\L
8d-\J
4d-\
=6
*M2/4
8d-\L
8d-\J
8d-\L
8d-\J
=7
4d-\
8r
8e-\
=8
*M3/4
4e-\
8e-\L
8d-\J
4d-\
=9
8e-\L
8e-\J
4.e-\
8d-\
=10
*M2/4
4e-\
8e-\L
8d-\J
=11
4d-\
8d-\L
8d-\J
=12
4d-\
8e-\L
8d-\J
=13
4A-\
4A-\
=14
2d-\
=15
*M3/4
4d-\
4d-\
4r
==:|!
*-
